X: 2177
Q: "Reel."
M: C
L: 1/8
K: G
|:\
|: ud |\
gfga bage |
dgBg dgBg |\
[1 gfga bage | dgBg A2A :|\
[2 bfge fdec | BdAB G2G2 |]


